X:1
T:From Citheron the warlike boy is fled
T:William Byrd (c.1540-1623)
T:The third part
T:From Citheron the warlike boy is fled
T:© Choral Public Domain Library 2010
T:© Choral Public Domain Library 2010
T:© Choral Public Domain Library 2010
T:© Choral Public Domain Library 2010
T:© Choral Public Domain Library 2010
T:© Choral Public Domain Library 2010
T:© Choral Public Domain Library 2010
T:© Choral Public Domain Library 2010
T:© Choral Public Domain Library 2010
T:© Choral Public Domain Library 2010
C:William Byrd (c.1540-1623)
Z:The third part
Z:© Choral Public Domain Library 2010
%%score [ 1 2 3 4 ]
L:1/8
M:4/4
K:C
V:1 treble nm="Soprano" snm="S."
V:2 treble nm="Alto" snm="A."
V:3 treble-8 transpose=-12 nm="Tenor" snm="T."
V:4 treble-8 transpose=-12 nm="Tenor" snm="T."
V:1
 [Cf]2 |[M:4/2] z16 | z16 | z4 z2 d2 d2 d2 A3 B | c2 A2 G2 c2 BA A4 ^G2 | A4 z4 A4 A2 A2 | %6
w: |||And smil- ing sits up-|on a vir- gin’s lap, a vir- gin’s|lap, there- by to|
 A4 z2 _B2 A3 =B c2 B2 | A4 z4 z2 B2 d2 c2 | B4 z2 A2 A2 E2 G3 F | E4 D4 z2 d2 d2 A2 | %10
w: train poor mis- ers to the|trap, whom beau- ty|draws with fan- cy to be|_ fed, with fan- cy|
 c3 B A4 A4 G4 | ^F4 z4 z8 | z4 A2 c4 d2 e4 | z2 e2 f2 e2 d2 c2 d2 A2 | c4 _B4 A8 | %15
w: to be fed, to be|fed,|and when de- sire,|and when de- sire, with ea- ger|looks is led,|
 z2 F2 c2 f2 d4 z4 | z2 G2 B2 G2 d4 z4 | z2 A3 D F2 E4 z4 | z2 A4 B3 c d4 ^c2 | d4 z4 z4 z2 A2- | %20
w: then from her eyes,|the ar- row flies,|fea- thered with flame,|armed with a gold- en|head, armed|
 A2 G4 F2 E2 E2 D2 d2- | d2 c4 _B2 A4 A4 | !fermata!A16 ||[K:F] z4 A4 d6 c2 | c4 z2 B2 A6 G2 | %25
w: _ with a gold- en head, armed|_ with a gold- en|head.|There care- less|thoughts are freed _|
 F6 ED E8 | z8 z2 A2 B2 c2 | A2 F2 D2 E2 F4 F2 G2- | G2 A4 G2 A8 | z4 z2 d2 d2 c2 d4 | %30
w: of that _ flame,|where- with her|thralls are scorch- ed to the heart,|_ to the heart,|if love would so,|
 z2 B2 B2 A2 B2 F2 B4 | A6 A2 G4 G4 | A16 | z2 A2 G4 B2 A4 F2 | A4 z4 z2 e2 d2 f2 | e4 A4 ^c4 z4 | %36
w: if love would so, would God|the en- chant- ing|dart,|might once re- turn and|burn, might once re-|turn and burn|
 z4 z2 A2 c6 d2 | e4 z2 A2 =Bc d4 ^c2 | d4 z2 =B2 B2 c2 B4 | z2 c2 c2 c2 c4 z4 | %40
w: from whence it|came, from whence _ _ it|came, not to de- face,|not to de- face|
 z2 A2 d3 c =B2 G2 c4 | =B4 z2 G2 GA_Bc d4 | z2 A2 c2 c2 G4 z2 d2 | f2 f2 c4 z8 | z16 | %45
w: of beau- ty’s work the _|frame, but by re- * * bound|it might be found, it|might be found,||
 z8 z2 d2 f4 | e2 d4 c2 B2 G2 B2 c2 | d2 d4 cB A8 | z16 | z4 z2 d2 f4 e2 d2- | d2 c2 d2 G2 B4 A4 | %51
w: what se-|cret smart I suf- fer by the|same, by the _ same,||what se- cret smart|_ I suf- fer by the|
 G4 z2 G2 B2 A4 G2- | G2 ^FE F4 | !fermata!G16 || z8 z4 z2 d2- | d2 c4 =B2 c4 z4 | z16 | %57
w: same, I suf- fer by|* the _ _|same.|If|_ love be just,||
 z2 d4 f4 e4 d2- | d2 ^c2 d8 z4 | z8 z4 A4 | B2 G2 d6 c2 d2 B2 | A2 c2 B4 A8 | z4 A6 GF A2 B2 | %63
w: then just is my|_ de- sire,|and|if un- just, why is he|called a _ God?|O _ _ _ _|
 c8 z4 d4- | d2 ef e2 d2 ^c3 d e2 f2 | e8 z4 d4- | d2 cB A2 B2 c6 BA | G8 C4 c4- | c4 d4 c8 | %69
w: God, O|_ _ _ _ _ good, O _ _|good, O|_ _ _ _ _ _ _ _|just, re- serve|_ thy rod,|
 z8 G4 c4- | c4 f4 e8 | z16 | G4 d6 A2 c4- | c4 B4 A6 G2 | F2 D2 A8 G4 | A8 A8 | A4 z2 ^c2 d4 d4 | %77
w: re- serve|_ thy rod||to chast- en those|_ that from thy|laws re- tire, re-|tire, re-|tire, but choose a-|
 e4 z2 e2 f4 d4 | e8 e4 f4- | f4 e4 d2 cd e4- | e2 d2 d8 ^c4 | d4 z2 d2 c4 B4 | A8 z4 z2 c2 | %83
w: right, but choose a-|right, good love|_ I thee _ _ _|_ re- quire, re-|quire, the gold- en|head, not|
 d4 f4 e4 d4 | c8 z4 z2 F2 | G4 B4 A8 | z16 | z8 z4 G4 | d6 c2 A4 c4- | c4 B6 A2 A4- | %90
w: that of lead, of|lead, not|that of lead,||her|heart is frost and|_ must dis- solve|
 A4 G4 A4 A4 | c6 B2 G4 B4 | d6 c2 c2 =BA B2 c2 | d2 c2 A4 z8 | d4 f6 e2 c4 | _e4 d6 c2 A4 | %96
w: _ by fire, her|heart is frost and|must dis- solve by _ _ _|_ _ fire,|her heart is frost,|and must dis- *|
 c8 B4 A4- | A2 G2 E4 F4 G4 | A8 z8 | z8 z4 d4 | f4 e8 d4- | d4 c6 BA B4 | A8 A8- | A8 | %104
w: solve by fire,|_ dis- * solve by|fire,|and|must dis- solve|_ by _ _ _|fire, by|_|
 !fermata!A16 |] %105
w: fire.|
V:2
 [G,d]2 |[M:4/2] z8 D4 A3 B | c2 A2 G2 F2 E2 D2 G4 | E4 D8 z2 A2 | A2 A2 E3 ^F G2 E2 E3 D | %5
w: |From Ci- the-|ron the war- like boy is fled,|is fled, and|smil- ing sits up- on a vir- gin’s|
 ^C4 z2 =C4 C4 C2 | C4 D6 A3 G G2- | G2 ^F2 G4 z2 G2 G2 E2 | D2 D2 D2 A,2 C3 B, G,2 D2- | %9
w: lap, there- by to|train poor mis- ers to|_ the trap, whom beau- ty|draws with fan- cy to be fed, to|
 D2 ^C2 D2 A2 A2 D2 F3 F | E4 E2 F3 E D4 ^C2 | D4 D2 F4 G2 A4- | A4 z2 A2 c2 B2 A2 G2 | %13
w: _ be fed, with fan- cy to be|fed, with fan- cy to be|fed, and when de- sire,|_ and when de- sire with|
 A6 A2 A2 A2 F4 | z8 z2 C2 F2 c2 | A4 z2 A2 B2 G2 d4 | z8 z2 D2 F2 D2 | A4 z2 D3 D ^C2 D4 | %18
w: ea- ger looks is led,|then from her|eyes, the ar- row flies,|the ar- row|flies, fea- thered with flame,|
 A,4 F2 D2 G2 F2 E4 | D4 z4 G4 F2 D2 | F2 E3 D D4 ^C2 D4 | z2 A4 G4 F2 E2 E2 | !fermata!^F16 || %23
w: armed with a gold- en _|head, armed with a|gold- * * * en head,|armed with a gold- en|head.|
[K:F] A8 B6 G2 | A4 z2 G2 F6 c2 | A4 A4 A8 | G4 A2 B2 A4 G4 | z2 A2 B2 c2 A2 F2 D4 | %28
w: There care- less|thoughts are freed _|of that flame,|where- with her thralls are,|where- with her thralls are scorch-|
 E2 F4 D2 ^C2 D4 C2 | D4 z2 B2 B2 A2 B4 | z2 G2 F2 F2 F4 z4 | z2 C2 F4 E2 G2 D3 E | %32
w: ed to the heart, to the|heart, if love would so,|if love would so,|would God, th’en- chant- ing _|
 F4 z2 D2 C4 F2 E2- | E2 D4 ^C2 D4 z2 A,2 | C4 D4 E2 E2 F4 | G2 A4 D2 A,4 D2 F2- | %36
w: dart, might once re- turn|_ and _ burn from|whence it came, from whence|it came, it came, from whence|
 FG A2 D4 z2 E2 F4 | G4 A4 G2 B2 A4 | ^F4 z2 G2 G2 G2 G4 | z2 G2 G2 A2 G2 G2 c3 =B | %40
w: _ it _ came, from whence|it came, from whence it|came, not to de- face,|not to de- face of beau- ty’s|
 A4 D4 G2 G4 ^F2 | G2 G2 GABc d4 z2 D2 | F2 F2 C4 z2 G2 B2 B2 | F4 z2 A2 c4 B2 A2- | %44
w: work the frame, the _|frame, but by re- * * bound it|might be found, it might be|found, what se- cret smart|
 A2 G2 G2 F2 E3 E F2 A2- | A2 GF E2 A2 B6 A2 | G4 F4 G3 D G2 A2 | F2 B4 AG ^F4 z2 A2 | %48
w: _ I suf- fer by the same, by|_ the _ same, what se- cret|smart I suf- fer by the|same, by the _ same, what|
 c4 B2 A4 G2 F2 F2 | B3 A GF G3 A F2 G4 | z8 z2 D2 F4 | E2 D4 C2 D6 G,2 | B,4 A,4 | %53
w: se- cret smart I suf- fer|by the _ _ _ _ _ same,|what se-|cret smart I suf- fer|by the|
 !fermata!G,16 || z2 G4 F4 E2 F4 | z2 A4 G4 ^F2 G4 | z8 z4 G4 | B4 A6 G4 F2 | E4 z4 z4 z2 E2 | %59
w: same.|If love be just,|if love be just,|then|just is my de-|sire, and|
 F2 D2 A6 G2 F2 E2 | G6 F2 D2 z2 z2 D2 | F6 E2 F2 D2 ^C4 | D8 F8 | G8 B8- | B8 A4 c4- | %65
w: if un- just, why is he|called a God, why|is he called a _|God? O|God, O|_ good, O|
 c2 BA G2 A2 B6 AG | F6 G2 A2 GF E2 D2 | E2 F4 E2 F4 z2 C2 | F4 B4 A6 F2 | A6 =B2 c8 | A4 c8 G4 | %71
w: _ _ _ _ _ _ _ _|just, O _ _ _ _ _|_ _ _ just, re-|serve thy rod, re-|serve thy rod|to chast- en|
 B4 d8 c4- | c4 B4 A4 F4 | G6 D2 F4 E4 | z4 F4 E4 D4 | E4 A,6 B,C D4 | ^C4 z2 A2 A4 =B4 | %77
w: those that from|_ thy laws re-|tire, re- * tire,|that from thy|laws re- * * *|tire, but choose a-|
 c4 z2 c2 d6 A2 | =B4 B4 c8 | G4 c8 B4 | A8 A6 G2 | ^F8 z2 A2 G4 | F4 E2 A4 G2 A4 | %83
w: right, but choose a-|right, good love,|good love, I|thee re- *|quire, the gold-|en head, gold- en head,|
 z2 G2 A4 c4 B4 | A4 G2 C2 D4 F4 | E4 D2 E2 F8 | A4 c6 B2 G4 | B4 A6 G2 E4 | F4 D4 F8 | %89
w: not that of lead,|of lead, not that of|lead, of _ lead,|her heart is frost|and must dis- *|solve by fire,|
 z4 B,4 F6 E2 | D8 C4 F4 | E8 z8 | z16 | A4 c6 =B2 G4 | B4 A6 G2 E4 | G4 F4 A8 | A4 G8 F4 | c8 d8 | %98
w: her heart is|frost, is _|frost,||her heart is frost,|and must dis- *|solve by fire,|and must dis-|solve by|
 c4 z2 A2 c4 B4 | A6 G2 F2 D2 F2 G2 | A8 G8 | A8 z4 D4 | F4 E8 D4- | D4 ^C4 | !fermata!D16 |] %105
w: fire, her heart is|frost and must dis- solve by|fire, by|fire, and|must dis- solve|_ by|fire.|
V:3
 [Dc']2 |[M:4/2] A4 d3 e f2 d2 f2 f2 | e6 d2 ^c2 f2 ed d2- | d2 ^c2 d2 f2 f2 f2 f4 | %4
w: |From Ci- the- ron the war- like|boy is fled, the war- like boy|_ is fled, and smil- ing sits|
 e2 e4 c2 d2 c2 B4 | A4 A2 A2 A4 z2 f2 | e3 ^f g2 G2 d8 | z2 d2 B2 c2 G4 z2 g2 | g2 d2 f4 e4 d4 | %9
w: up- on a vir- gin’s lap,|there- by to train poor|mis- ers to the trap,|whom beau- ty draws with|fan- cy to be fed,|
 z2 a2 a2 d2 f3 e d4 | A4 c2 d2 A3 B cB G2 | A4 z4 z4 z2 e2 | f2 e2 d2 A2 A2 G2 c2 c2 | %13
w: with fan- cy to be fed,|with fan- cy to be _ _ _|fed, and|when de- sire with ea- ger looks is|
 A4 z2 e2 f2 e2 d2 ca- | ag f4 e2 f4 z2 c2 | f2 c'2 a4 z4 z2 d2 | e2 d2 g4 z4 z2 d2 | %17
w: led, and when de- sire with ea-|* ger looks is led, then|from her eyes the|ar- row flies, the|
 f2 d2 a4 z2 a3 d f2 | e4 z4 z4 z2 A2- | A2 B3 c d4 ^c2 d4 | z8 a4 f2 d2 | f4 e2 d2 ^c2 d4 c2 | %22
w: ar- row flies, fea- thered with|flame, armed|_ with a gold- en head,|armed with a|gold- * * * * en|
 !fermata!d16 ||[K:F] f8 f6 e2 | f4 z2 d2 d3 e f2 e2- | e2 dc d4 ^c8 | z2 e2 f2 g2 e2 f2 d2 e2 | %27
w: head.|There care- less|thoughts are freed _ of that|_ _ _ _ flame,|where- with her thralls are scorch- ed|
 f2 d4 c2 F4 z4 | z2 c2 d4 e2 f2 e4 | d4 z2 B2 B2 F2 B4 | z2 d2 d2 c2 d4 z2 d2 | %31
w: to the _ heart,|are scorch- ed to the|heart, if love would so,|if love would so, would|
 f2 e3 d d3 c c4 B2 | c2 d2 c2 f2 e4 A2 c2- | c2 A2 e4 z2 d2 c4 | f2 e4 d2 ^c4 z2 A2 | %35
w: God the en- chant- * * ing|dart, might once re- turn and burn,|_ and burn, might once|re- turn and burn, from|
 c4 d4 e4 z2 d2 | f3 g a2 f2 e4 z2 A2 | cd e3 d f2 e4 e4 | d4 z2 d2 d2 e2 d4 | %39
w: whence it came, from|whence it came, re- turn from|* * * * it came, it|came, not to de- face,|
 z2 e2 e2 f2 e2 e2 a3 g | ^f6 g2 d3 e c4 | d8 z2 d2 defg | a8 z2 e2 g2 g2 | d4 z4 e2 g4 f2 | %44
w: not to de- face of beau- ty’s|work the frame, the _|frame, but by re- * *|bound, it might be|found, what se- cret|
 e4 d2 c4 B2 A2 f2- | f2 ed ^c2 c2 d8 | z16 | z8 z2 d2 f4- | f2 e2 d4 c2 B4 A2 | G6 G2 D4 z2 d2 | %50
w: smart I suf- fer, I suf-|* fer _ by the same,||what se-|* cret smart, I suf- fer|by the same, what|
 f6 e2 d2 G2 d3 A | B4 A2 G4 ^F2 GABc | d6 c2 | !fermata!=B16 || G4 B4 c4 d2 B2 | A4 d4 c4 z2 d2- | %56
w: se- cret smart I suf- fer|by the same, I suf- fer _ _|by the|same.|If love be just, if|love be just, then|
 d2 f4 e4 d4 ^c2 | d8 z8 | z4 d4 f2 d2 a4- | a2 g2 f2 e2 f2 d4 ^c2 | d4 z2 d2 f6 B2 | %61
w: _ just is my de-|sire,|and if un- just,|_ why is he called a _|God, why is he|
 d2 c2 d2 B2 c2 f2 e3 g | ^f8 z4 =f4- | f2 ed e2 f2 g4 f4 | d4 g4 e4 a4- | a2 gf e2 f2 g2 fe d4 | %66
w: called a _ _ God, a _ _|God? O|_ _ _ _ _ God, O|_ _ good, O|_ _ _ _ _ _ _ _ just,|
 z4 f6 ed c4- | c2 BA G4 A8 | z8 z4 F4 | c4 f4 e4 z2 c2 | f4 a4 g4 e4 | g6 d2 f4 f4 | e4 d4 f8 | %73
w: O _ _ _|_ _ _ _ just,|re-|serve thy rod, re-|serve thy rod to|chast- en those that|from thy laws|
 e4 d8 ^c4 | d4 z4 A4 d4- | d4 ^c4 d4 f4 | e4 z2 e2 f4 g4 | g4 a8 a4- | a2 ^g^f g4 a8 | z4 e4 g8- | %80
w: re- tire, re-|tire, that from|_ thy laws re-|tire, but choose a-|right, but choose|_ a- * * right,|good love,|
 g4 f4 e4 e4 | d8 z8 | z2 d2 c4 B4 A4 | z8 z2 c2 d4 | f4 e4 f4 c4- | c2 BA B4 c4 c4 | %86
w: _ I thee re-|quire,|the gold- en head,|not that|of lead, not that|_ of _ _ lead, her|
 f6 e2 c4 _e4 | d6 c2 A4 c4 | B6 A2 F4 A4 | G8 F8 | z4 d4 f6 e2 | c8 e4 g4- | g2 f2 f4 e8 | %93
w: heart is frost and|must dis- solve, and|must dis- solve by|_ fire,|her heart is|frost and must|_ dis- solve by|
 d4 c3 d e2 d2 =B2 ^c2 | d4 z2 A2 c6 B2 | G4 B4 F6 G2 | A3 B c4 G4 z4 | z8 z4 d4 | f4 e8 d4- | %99
w: fire, by _ _ _ _ _|fire, her heart is|frost and must dis-|solve by _ fire,|and|must dis- solve|
 d4 ^c4 d8 | z8 z4 d4 | f4 e8 d4- | d4 c4 f8 | e6 g2 | !fermata!^f16 |] %105
w: _ by fire,|and|must dis- solve|_ by _|fire, by|fire.|
V:4
 [Cf]2 |[M:4/2] z8 z4 D4 | A3 B c2 d2 A2 _B2 G4 | A4 D4 z2 d2 d2 d2 | A3 B c2 A2 G2 A2 E4 | %5
w: |From|Ci- the- ron the war- like boy|is fled, and smil- ing|sits up- on a vir- gin’s lap,|
 z4 F4 F2 F2 F4 | A4 G4 ^F2 F4 G2 | D4 z4 z2 d2 B2 c2 | G4 D4 A2 c2 B2 G2 | A4 D8 z4 | %10
w: there- by to train|poor mis- ers to the|trap, whom beau- ty|draws with fan- cy to be|_ fed,|
 z2 A2 A2 D2 F4 E4 | D4 z2 d2 f2 e2 d2 c2 | d2 A2 f3 e c2 z2 z2 c2 | f2 e2 d2 c2 d2 A2 _B2 F2 | %14
w: with fan- cy to be|fed, and when de- sire with|ea- ger looks is led, and|when de- sire with ea- ger looks is|
 A4 G4 F8 | F8 G4 G4 | G4 z2 G2 B2 G2 d4 | z2 D2 F2 D2 A4 z2 d2- | dd ^c2 d4 z4 A4 | %19
w: led, is led,|then from her|eyes the ar- row flies,|the ar- row flies, fea-|* thered with flame, armed|
 F2 G2 D2 F2 E4 D4 | z4 A8 _B4 | F4 G4 A4 A4 | !fermata!D16 ||[K:F] d8 B6 c2 | F4 z2 G2 D6 E2 | %25
w: with a gold- en _ head,|armed with|a _ gold- en|head.|There care- less|thoughts are freed _|
 F4 D4 A4 z2 A2 | B2 c2 A2 G2 c2 F2 G2 C2 | F4 z4 z2 A2 B4 | c2 A2 B4 A8 | z2 f2 f2 d2 f4 z2 B2 | %30
w: of that flame, where-|with her thralls are scorch- ed to the|heart, are scorch-|ed to the heart,|if love would so, if|
 B2 G2 B2 F2 B4 G4 | A4 D2 D2 E3 F G4 | F8 z4 D2 C2- | C2 F2 E4 D4 F4- | F2 A2 G2 B2 A4 D4 | %35
w: love would so, would God, would|God the en- chant- * ing|dart might once|_ re- turn and burn,|_ might once re- turn and|
 C4 z4 z2 A2 B3 c | d2 D2 F3 G A4 F4 | E2 E2 F4 G4 A4 | D4 z2 G2 G2 C2 G4 | z2 c2 c2 F2 c4 z2 A2 | %40
w: burn from whence it|came, from whence it came, re-|turn from whence it _|came, not to de- face,|not to de- face of|
 d3 c =B2 G3 ABc A4 | G4 z2 G2 G4 B4 | F4 z2 A2 c2 c2 G4 | z2 d2 f2 f2 c4 z2 F2 | %44
w: beau- ty’s work the _ _ _ _|frame, but by re-|bound it might be found,|it might be found, what|
 c4 B2 A4 G2 F2 D2 | F2 G2 A4 G3 G D4 | G2 B4 A2 G4 z2 F2 | B2 G2 B2 c2 d8 | z2 c2 f4 e2 d4 c2 | %49
w: se- cret smart I suf- fer|by the same, by the same,|what se- cret smart I|suf- fer by the same,|what se- cret smart I|
 d2 G2 B4 A4 G4 | F4 B2 c2 G4 z2 D2 | G3 D F2 E2 D8 | D4 D4 | !fermata!d16 || z8 z4 D4 | %55
w: suf- fer by the same,|what se- cret smart I|suf- fer by the same,|by the|same.|If|
 F4 G4 A4 G4 | B4 A4 G2 F2 E4 | D8 z8 | A4 B2 G2 d6 c2 | d2 B2 A2 c2 B4 A4 | G4 B6 A2 B2 G2 | %61
w: love be just, then|just is my _ de-|sire,|and if un- just, why|is he called a _ God,|why is he called a|
 F2 A2 G4 F3 G A4 | D8 d8 | c8 B8- | B4 G4 A8 | c6 BA G2 A2 B4- | B2 AG F6 G2 A2 B2 | c4 C4 F8 | %68
w: _ _ God, a _ _|God? O|God, O|_ _ good,|O _ _ _ _ _|_ _ _ just, O _ _|_ _ just,|
 z8 F4 c4- | c4 d4 c8 | z4 F4 c8 | G4 B8 A4 | G4 G4 F4 A4 | G8 z4 A4 | d6 A2 c4 B4 | A6 G2 F4 D4 | %76
w: re- serve|_ thy rod,|to chast-|en those that|from thy laws re-|tire, to|chast- en those that|from thy laws re-|
 A4 z2 A2 d4 G4 | c4 z2 A2 d4 f4 | e8 A8 | c8 G8 | A8 A8 | D4 D4 F4 G4 | D4 z4 z2 d2 c4 | %83
w: tire, but choose a-|right, but choose a-|right, good|love I|thee re-|quire, I thee re-|quire, the gold-|
 B4 A8 z2 G2 | A4 c4 B4 A4 | G4 G4 F8- | F8 z8 | z16 | d4 f6 e2 c4 | _e4 d6 c2 A4 | B4 B4 F8 | %91
w: en head, not|that of lead, not|that of lead,|_||her heart is frost|and must dis- *|solve by fire,|
 A4 c6 B2 G4 | B4 A6 G2 E4 | F8 E8 | D8 z8 | z4 d4 f6 e2 | c4 _e4 d6 c2 | A4 c4 B8 | A8 z4 D4 | %99
w: her heart is frost|and must dis- *|solve by|fire,|her heart is|frost and must dis-|* solve by|fire, and|
 F4 E4 D8 | z4 A4 c4 B4 | A8 G8 | A8 F6 G2 | A8 | !fermata!D16 |] %105
w: must dis- solve,|and must dis-|solve by|fire, by _|_|fire.|

